src/assets/svg/msg.svg

<svg width="34" height="34" viewBox="0 0 34 34" fill="none" xmlns="http://www.w3.org/2000/svg">
<path fill-rule="evenodd" clip-rule="evenodd" d="M12.2398 29.7505H21.7601L21.9257 29.7505C23.7781 29.7506 25.4254 29.7508 26.7553 29.5693C28.2008 29.372 29.6603 28.9172 30.8533 27.7063C32.0462 26.4955 32.4943 25.014 32.6886 23.5468C32.8674 22.1969 32.8673 20.5248 32.8671 18.6445V15.3556C32.8673 13.4754 32.8674 11.8033 32.6886 10.4534C32.4943 8.98622 32.0462 7.5047 30.8533 6.29386C29.6603 5.08302 28.2008 4.62815 26.7553 4.43089C25.4254 4.2494 23.7781 4.24955 21.9257 4.2497L21.7601 4.24971H12.2398L12.0742 4.2497C10.2218 4.24955 8.57453 4.2494 7.24464 4.43089C5.79916 4.62815 4.3396 5.08302 3.1467 6.29386C1.95379 7.5047 1.50566 8.98622 1.31133 10.4534C1.13253 11.8033 1.13267 13.4754 1.13282 15.3556L1.13283 15.5237V18.4765L1.13282 18.6445C1.13267 20.5248 1.13253 22.1969 1.31133 23.5468C1.50566 25.014 1.95379 26.4955 3.14669 27.7063C4.3396 28.9172 5.79916 29.372 7.24464 29.5693C8.57453 29.7508 10.2218 29.7506 12.0742 29.7505L12.2398 29.7505ZM9.67768 11.0309C8.70116 10.4194 7.38177 10.6672 6.73075 11.5846C6.07973 12.5019 6.3436 13.7413 7.32013 14.3529L15.5061 19.4794C16.4102 20.0456 17.5881 20.0456 18.4923 19.4794L26.6782 14.3529C27.6547 13.7413 27.9186 12.5019 27.2676 11.5846C26.6166 10.6672 25.2972 10.4194 24.3207 11.0309L16.9992 15.6161L9.67768 11.0309Z" fill="white"/>
</svg>

<svg width="34" height="34" fill="none" xmlns="http://www.w3.org/2000/svg"><path fill-rule="evenodd" clip-rule="evenodd" d="M12.24 29.75h9.686c1.852 0 3.5 0 4.83-.18 1.445-.198 2.904-.653 4.097-1.864 1.193-1.21 1.641-2.692 1.836-4.16.178-1.35.178-3.021.178-4.901v-3.29c0-1.88 0-3.552-.178-4.902-.195-1.467-.643-2.948-1.836-4.16-1.193-1.21-2.652-1.665-4.098-1.862-1.33-.182-2.977-.181-4.83-.181H12.075c-1.852 0-3.5 0-4.83.18-1.445.198-2.904.653-4.097 1.864-1.193 1.21-1.641 2.692-1.836 4.16-.178 1.35-.178 3.021-.178 4.902v3.289c0 1.88 0 3.552.178 4.902.195 1.467.643 2.948 1.836 4.16 1.193 1.21 2.652 1.665 4.098 1.862 1.33.182 2.977.182 4.83.181h.165zM9.678 11.03c-.977-.61-2.296-.363-2.947.555-.651.917-.387 2.156.59 2.768l8.185 5.126a2.837 2.837 0 0 0 2.986 0l8.186-5.126c.977-.612 1.24-1.851.59-2.768-.651-.918-1.97-1.166-2.947-.554l-7.322 4.585-7.321-4.585z" fill="#fff"/></svg>
